X:54
T: Graf und Nonne (Die Nonne)
N: Q21550
O: Nordeuropa, Schweden
N: Schwedische Fassung der Ballade.
N: Schlusspause und Pause in der zweiten Zeile rhythmisch korrigiert.
R: Ballade, Standesunterschied, vergebliche Werbung, Liebe, Klage
M: 2/4
L: 1/16
K: G
G4 | G2d2dc_BA | G4F3
G | _B2B2c2c2 | d4
G4 | G2d2dc_BA | G4F3
G | _B2B2c2c2 | d4z2
d2 | d3=ff3d | d3_BB3
d | d2c2c3_B | A4z2
A2 | _B3Bc2c2 | d3dG3
A | _B2B2A2A2 | G4

@@@ Tune index: 1764
